epam-assets/icon-sources/18/editor-headline_h2.svg

<svg width="18" height="18" viewBox="0 0 18 18" fill="none" xmlns="http://www.w3.org/2000/svg">
<g id="18/editor-headline_h2">
<path id="icon" fill-rule="evenodd" clip-rule="evenodd" d="M2.25 3.75H3.75V8.25H6.75V3.75H8.25V14.25H6.75V9.75H3.75V14.25H2.25V3.75ZM15.75 14.25H11.25C10.4216 14.25 9.75 13.5784 9.75 12.75C9.75 12.3525 9.9 12 10.155 11.73L13.8075 7.8075C14.085 7.5375 14.25 7.1625 14.25 6.75C14.25 5.92157 13.5784 5.25 12.75 5.25C11.9216 5.25 11.25 5.92157 11.25 6.75H9.75C9.75 5.09315 11.0931 3.75 12.75 3.75C14.4069 3.75 15.75 5.09315 15.75 6.75C15.75 7.575 15.4125 8.325 14.8725 8.8725L11.25 12.75H15.75V14.25Z" fill="#6C6F80"/>
</g>
</svg>

<svg xmlns="http://www.w3.org/2000/svg" width="18" height="18" fill="none" viewBox="0 0 18 18">
  <path fill="#6C6F80" fill-rule="evenodd" d="M2.25 3.75h1.5v4.5h3v-4.5h1.5v10.5h-1.5v-4.5h-3v4.5h-1.5V3.75Zm13.5 10.5h-4.5a1.5 1.5 0 0 1-1.5-1.5c0-.398.15-.75.405-1.02l3.652-3.923c.278-.27.443-.645.443-1.057a1.5 1.5 0 0 0-3 0h-1.5a3 3 0 1 1 5.123 2.123L11.25 12.75h4.5v1.5Z" clip-rule="evenodd"/>
</svg>
